src/img/calendar.svg

<svg fill="none" height="24" viewBox="0 0 24 24" width="24" xmlns="http://www.w3.org/2000/svg"><g fill="#1c274c"><path d="m7.75 2.5c0-.41421-.33579-.75-.75-.75s-.75.33579-.75.75v1.57926c-1.43933.11525-2.38423.39811-3.07843 1.09231s-.97706 1.6391-1.09231 3.07843h19.84144c-.1152-1.43933-.3981-2.38423-1.0923-3.07843s-1.6391-.97706-3.0784-1.09231v-1.57926c0-.41421-.3358-.75-.75-.75s-.75.33579-.75.75v1.5129c-.6653-.0129-1.411-.0129-2.25-.0129h-4c-.83903 0-1.58473 0-2.25.0129z"/><path clip-rule="evenodd" d="m2 12c0-.839 0-1.5847.0129-2.25h19.9742c.0129.6653.0129 1.411.0129 2.25v2c0 3.7712 0 5.6569-1.1716 6.8284-1.1715 1.1716-3.0572 1.1716-6.8284 1.1716h-4c-3.77124 0-5.65685 0-6.82843-1.1716-1.17157-1.1715-1.17157-3.0572-1.17157-6.8284zm15 2c.5523 0 1-.4477 1-1s-.4477-1-1-1-1 .4477-1 1 .4477 1 1 1zm0 4c.5523 0 1-.4477 1-1s-.4477-1-1-1-1 .4477-1 1 .4477 1 1 1zm-4-5c0 .5523-.4477 1-1 1s-1-.4477-1-1 .4477-1 1-1 1 .4477 1 1zm0 4c0 .5523-.4477 1-1 1s-1-.4477-1-1 .4477-1 1-1 1 .4477 1 1zm-6-3c.55228 0 1-.4477 1-1s-.44772-1-1-1-1 .4477-1 1 .44772 1 1 1zm0 4c.55228 0 1-.4477 1-1s-.44772-1-1-1-1 .4477-1 1 .44772 1 1 1z" fill-rule="evenodd"/></g></svg>

<!DOCTYPE svg PUBLIC "-//W3C//DTD SVG 1.1//EN" "http://www.w3.org/Graphics/SVG/1.1/DTD/svg11.dtd">
<!-- Uploaded to: SVG Repo, www.svgrepo.com, Transformed by: SVG Repo Mixer Tools -->
<svg width="800px" height="800px" viewBox="0 0 24 24" fill="none" xmlns="http://www.w3.org/2000/svg">
<g id="SVGRepo_bgCarrier" stroke-width="0"/>
<g id="SVGRepo_tracerCarrier" stroke-linecap="round" stroke-linejoin="round"/>
<g id="SVGRepo_iconCarrier"> <path d="M22 14V12C22 11.161 22 10.4153 21.9871 9.75H2.0129C2 10.4153 2 11.161 2 12V14C2 17.7712 2 19.6569 3.17157 20.8284C4.34315 22 6.22876 22 10 22H14C17.7712 22 19.6569 22 20.8284 20.8284C22 19.6569 22 17.7712 22 14Z" fill="#ffffff"/> <path d="M7.75 2.5C7.75 2.08579 7.41421 1.75 7 1.75C6.58579 1.75 6.25 2.08579 6.25 2.5V4.07926C4.81067 4.19451 3.86577 4.47737 3.17157 5.17157C2.47737 5.86577 2.19451 6.81067 2.07926 8.25H21.9207C21.8055 6.81067 21.5226 5.86577 20.8284 5.17157C20.1342 4.47737 19.1893 4.19451 17.75 4.07926V2.5C17.75 2.08579 17.4142 1.75 17 1.75C16.5858 1.75 16.25 2.08579 16.25 2.5V4.0129C15.5847 4 14.839 4 14 4H10C9.16097 4 8.41527 4 7.75 4.0129V2.5Z" fill="#ffffff"/> </g>
</svg>
